X:1
T:Feldweg-Juiz (Januar 1995)  Bb  ABAC
T:Erwin Britschgi  (* 9.4.1937)
T:Dirigenten-Notiz  Edi Gasser
C:Unterwalden (CH)
%%partsbox
P:ABAC
M:3/4
R:Naturjodel
L:1/4
K:Bb
[P:A] F|BFd | B2d | cGe | c2g | fFe | dAc | BAG | F2z | 
BFd | B>cd | cGe | c>de | fFe | ddc | B B/F/ d/c/ | B2 || 
L:1/4
M:3/4
[P:B]  F/B/ | GBe | G>B A/G/ | FBd | F>d c/B/ | AcF | 
f>e d/c/ | BAG | F2B/A/ | GBe | G>B A/G/ | FBd | 
F>d c/B/ | AcF | f>e d/c/ | B d/F/ c/F/ | B2z ||  
M:4/4
[P:C]  B,DGD | CEG=E | f e/c/ A/c/ F/e/ | d B/G/F2 | F Bd _A/G/ 
Gce/d/c | f F/e/ d/d/ A/c/ | B3z | B,DGD | CEG=E | f e/c/ A/c/ F/e/ | 
d B/G/F2 | F Bd _A/G/ | Gce/d/c | f F/e/ d/d/ A/c/ | B3z |] 
W:
%W:Reihenfolge: A-B-A-C
W:notiert Edi Gasser. Angaben von Erwin Britschgi
W:
W:UJV-Naturjodelsammlung: Code-Nr: 14-01
W:http://www.naturjodler.ch/code 14.htm  (with AUDIO)
%May 9, 2018

